icons/octagon.svg

<svg width="24" height="24" viewBox="0 0 24 24" fill="none" xmlns="http://www.w3.org/2000/svg">
<path fill-rule="evenodd" clip-rule="evenodd" d="M6.84734 3.39196C7.52095 2.60366 8.54156 2.25 9.5 2.25H14.5C15.4585 2.25 16.479 2.60367 17.1526 3.39196L20.608 6.84737C21.3963 7.52096 21.75 8.54153 21.75 9.5V14.5C21.75 15.5119 21.3615 16.3992 20.6303 17.1303L17.1526 20.608C16.479 21.3963 15.4585 21.75 14.5 21.75H9.5C8.48809 21.75 7.60082 21.3615 6.86963 20.6303L3.39193 17.1526C2.60362 16.479 2.25 15.4584 2.25 14.5V9.5C2.25 8.48811 2.63843 7.60087 3.36963 6.86966L6.84734 3.39196ZM9.5 3.75C8.86967 3.75 8.30291 3.98799 7.97613 4.38013L7.95435 4.40627L4.43029 7.93032C3.9615 8.39912 3.75 8.91189 3.75 9.5V14.5C3.75 15.1303 3.98797 15.697 4.3801 16.0238L4.40624 16.0456L7.93029 19.5697C8.39911 20.0385 8.91191 20.25 9.5 20.25H14.5C15.1303 20.25 15.697 20.012 16.0238 19.6199L16.0456 19.5937L19.5696 16.0697C20.0385 15.6008 20.25 15.0881 20.25 14.5V9.5C20.25 8.86971 20.012 8.30296 19.6198 7.97616L19.5937 7.95438L16.0456 4.40627L16.0238 4.38013C15.697 3.98798 15.1303 3.75 14.5 3.75H9.5Z" fill="black"/>
</svg>

<svg xmlns="http://www.w3.org/2000/svg" fill="none" viewBox="0 0 24 24">
  <path fill="#000" fill-rule="evenodd" d="M6.847 3.392C7.521 2.604 8.542 2.25 9.5 2.25h5c.959 0 1.979.354 2.653 1.142l3.455 3.455c.788.674 1.142 1.695 1.142 2.653v5c0 1.012-.389 1.9-1.12 2.63l-3.477 3.478c-.674.788-1.694 1.142-2.653 1.142h-5c-1.012 0-1.9-.389-2.63-1.12l-3.478-3.477c-.788-.674-1.142-1.695-1.142-2.653v-5c0-1.012.388-1.9 1.12-2.63l3.477-3.478ZM9.5 3.75c-.63 0-1.197.238-1.524.63l-.022.026L4.43 7.93c-.468.47-.68.982-.68 1.57v5c0 .63.238 1.197.63 1.524l.026.022L7.93 19.57c.47.468.982.68 1.57.68h5c.63 0 1.197-.238 1.524-.63l.022-.026 3.524-3.524c.468-.47.68-.982.68-1.57v-5c0-.63-.238-1.197-.63-1.524l-.026-.022-3.548-3.548-.022-.026c-.327-.392-.894-.63-1.524-.63h-5Z" clip-rule="evenodd"/>
</svg>
